-----BEGIN PGP PUBLIC KEY BLOCK-----

mQINBGMlabIBEADgizP6+Ki3o0YpZN5pyIAwePln6aVsjb4MxEcANrAQWMI8t6+0
YPVdfbT9nR1bjmaB2MJ7+qam92gElfPGsWj9LEbBf9lAv4f/1KGOGYsqg0NUo6M9
7lyfUHc9GuEkFC2MNKM0zDVzGci99Gud57CtmbAicj5/+wwsVB0ZNfI7dAfVjk7V
qBKmchVUEBAnb5XagfoDbNDrHSB3U6ojSKN3cJF1e1359nF+f9+f+sPqdjK2I7ib
vvvYnn+GjfEpOn2anVT0veKa8OwlYHMG+fm5Ct7dwDRPw++Is+B1eCXXvJqTIcBg
frqQR+Mxa9HTz0bOJJMQiE++9vCAGmlGybn0L7EF5gkh2jHEHmXSMtKJAbTcFXZr
3lcB0TqT2phe+wohaU9PltsEY24VcHBgN46CeAbL3D1NlTuseToZMO2YSoFgXLt3
55pFNcH2PoBLHpOsfdWjLs5gvIUsBLkV5IpaIJM9htYOBjqauk6ANwssmL7ZHiGo
vCyODjgP/aeLi8u9Nxj8inusmvIhsnnGSE9GYK6n/lbxrTrdgeg1yMF960aEYsRL
eIxdBqOjuBfWURRw4LxbdHDdMf0JI/4AoiUqLZOIYGyXqj/vhrO4iYn9No7l/j4e
urS97j4zd5DnXLEQwwRcXqwZFJbvGGTQ65MR018Xwln6G+UhpcoRtiDrywARAQAB
tD5XdWx1IEtudXQgKHd1bHVrbnV0J3MgYXV0aGVudGljYXRpb24ga2V5KSA8d3Vs
dWtudXRAZ21haWwuY29tPokCTgQTAQgAOBYhBDtJrOs/v6YoPk1iDdOJL3wP0MRu
BQJjJWmyAhsDBQsJCAcCBhUKCQgLAgQWAgMBAh4BAheAAAoJENOJL3wP0MRuhPYP
/2CvupKT0oVJjj7ZajFZl1UaYDsmhmmHi55tm/VqHOjN6A3roqWfXzrce89QqnFL
kMXYFNk7bCB9Prj3bGlFGo58yeArXNp1ghXVSKqOqQcv1qiaWu/Hgf0sFb1xKmSl
1Rlot5I62hLhixAVSuzhy4kyLD9bYILDSi/DGqMBBMu2VW96ZSzGWzAdMe76Wifx
B+gAqXtximKbbXOENBaCM4JYnVTTf31dvzeQc32LYHMVjdiKzMf9j8tUMxcThzy/
L8uFTSLnQb4iTMMYwbqn+QOjKaKX1/V6aHuQmQ2JlnOK2lvbUQ7ai92BCDSXExNo
jp1VuxJhvBHJRfPpbf66BdyyPmjJKdfnS2B3du/Lw+pvxcmuyTMfsjGIwROYuBrU
MBIiFb4DPbuNJIlX8wEJzheZe2QkuDrnPGqxjtHMNCSWl/oSPzd7SRkEkSL9nkpy
TMNPygX9l1U9VezjmW3VgXcxlUE2c7tmiSDOxD+YnivSi/ZMb++CGzU+4jfW58ot
+F8TFEJkpqR5aCIRLgJLRYyOW6dMU1xEx63kaxY/by9kGWmwPbfDKcOoz7E0sXaB
Phq1Bc7piTQSeCaMiv5dYtbrJQoKCKPLIdHfV7ZDuoypyK0N7TCrf7UrXcG9ZXAM
yZqE0q/M6Ozdq+bH99rizE+87IzC4gU5Nn8N7Txst9r9uQINBGMlabIBEAC+xHmZ
oIMF5URsxsoTzbY1GVIV+gXcAfdKtpcNJe3tMHrApAYz5tao36IThb1rjUC61M1O
WPtV0VZnZ8wjr0W8EB54/T683zzaTcrgknGIy+1f8/YBoGqjjFa1aJaoW1bLJ1qF
yR9cU7Tp4VTFD5qd4BAI3cCvjV9Hxs2bxR2xm+PXXHvMWJHYVVG68bUYKqSyQmbM
xiA5UZHOZIs78aQiipJMiWjB70vPsCspxozeSKfoXb3zwh4ek+MBeDpUI2X7IMHv
QsVYxCpJRnOSyQymV27ZVBlIkEMG9WcTugmiLPRodg68r+EkhCaVSChZDZx06a7U
DaCNiK3TjbpIThvqWH+M3pQ/LBhDHkcs4UyJ3OggfEHRufaCLq7hBKvlxyrynnrh
jr6NLD+WWPeQhXZ9jr81yLqdhtpBir0+dLdRoIIkEyKOoMVfevDjP9K2lGs9mHYn
FMab4710tcVbgo/UtEXkev6Vs1yw6Esylz7eCPDkqGcz4HbM/8v6jIPZExYhJkUq
Oj7Jm51mBPvLHznExt2UKqkHq14IPwry73jNcoMQ2ke9dG5PweCnXQLRvRIFRMFC
yev9W4q09igXH90OhANHeOIXKZpDYvkfxR31taNUBEo/hqrQyS+yegpHs9M7JFoR
MyD280gn+MxHUWfJHm0QFrrkblitMagdkHN8UQARAQABiQI2BBgBCAAgFiEEO0ms
6z+/pig+TWIN04kvfA/QxG4FAmMlabICGwwACgkQ04kvfA/QxG4BRQ//aagMKGvV
hLE95Q1beqe8CbaNwwjWtFfTRWiK39EqxPYUUcSjPfyZVv8xUaun9q0cgKc0LpTg
Cam2ZVFlMBwRViRAyeK9k3hcQTMLgOueH12AJgFIRJvYrSRZ88DXKSL7gDybspeg
JwEu//asRijdsFk6oXikFDSg0MJk/RRXp4Yh9TFci5Xh9iqYE2k6pdbidptPmr7k
M3jOsBLxcQctMiqfk83Ov2OA/p/O6WmDBfvP/GyJwkHzdyyPMXPhoiJWsuW9qetV
JJz21/sCwYCl8peHCcX4REBzYmU0WK5ASFSnMfo+7LyJ0OJ8Wy8HBhP6MXl+37qC
MA4TVrnCL4MomZTCGHtC2D+pQ1o5TiOVhy12TJaTAulPkelPj7auk7HSr4Xr6hLP
oor+V8/FwMek9NqBAWIbZlb3Rs9/aQd4imTV2jVIL/lnhZV7WvVsRj+KDSqBVDK+
k70ut7v+PKZRfhVwrEplgBUtaAAiXjL9rJGmoRVIkE/nxERss8RKTuVfpmE18ium
4I2CWuVvzVba14GHTMuNVc76xvMXS1fPy8BKuwCRMv7n+lnQPhcZiO1ttXrHzIHl
4TREj3FnDlBijc0frm/RkTceCSeweUBi3YihPIEIkcTDYK+1aqVnd7NXB9yd16tl
x79nvqOddC1Tyx00j+AnprWLW6tFlELxmQa5Ag0EZpXaOwEQAPGZ9PAHBu9sKItC
D8MeuU5hycKFnO5kURaKH7VqM6Q15dVmRynIkDQB9fGZJSpwVoEjobc66HMnOkdo
VgtZ4w0EBOuO1xlhFXShmTf99ygZGeFyxs6bXafdtYqQkrKlUghAylSuAXIdqTy/
eNwMUZD9fuPNOYcWl5GuU/L4K4rcEQRABNga1t0dmBKBcsNrdwHcl+zFLxawySQ3
Tf07hOFutiEKLM5EZ6iA/O8pVdFofb05R1kDEv2b91AiFRYCH0WSW7VHWSFmx10N
8FIYC1fsTFjJNpMYEaONTwCD3JZmUhd0lGqpW85wHjvDR9Hn8f/wcOzRz3QFe54s
YvwhxwMhBMiaG/pEmhP66Qo+tIoHR/VaQ6X9nYWYuavrYSBfFn22YBT/4lXvRIXH
6yO7DlILBynQxNv1tI52UV98xbPcNlRlN8gZsQ4dSTOrAkWuWduDQCPVeawKRZ2U
eZ1LFqDSJI2UZnrctD9ttJ+F8D/jqAlZNgIscwTJp5plJeGHzIHnvYoa9Mi7KsQU
oul71fMSyjBLoakuAnNP31XaIoszUH8Ae0nbkgwki1ngQj0wWe7RKviOOmM8Se7j
Ea7QvsDq3dmzF6Jghpjbi2z6B6i2ohatLQEtYMMi6pCyzB4gN1koXRnD27xwQ+T+
ZZjs1te0mY1UqgejOAJv0PINCtoBABEBAAGJAjwEGAEIACYCGwwWIQQ7SazrP7+m
KD5NYg3TiS98D9DEbgUCaLGLHgUJA/zkYwAKCRDTiS98D9DEbt31D/4olHIilJbx
YDcor0b0JFUYnUw+erQ5VaEWhTE3zep0UYY0Ay1vazMYqCUMxbHRl3uTZyO82xhp
GJ3ve6WnjCnqJMCtg1HVTBvsR46/GajfafQnfqOvkPBHhO3gkICrB7WMguEradyW
cJuJBaLfE2E/kkoM7o3M/57wjELo/1Jpw6j8jczI9REwlqVnXD3hfdnYGNwpxw4z
S8xI9HOypCKFztmZmSvZ+f8o0/WLAEozXeFsWUQ2CoOhz5UjLxoK5bm823OpWSZe
nMHUaiQXwceIoB3sce8Yr0QO8PgLX3iU8EGzwTQMYOp0xxD7kt00HTg3SOpaI6zk
9pNfXO3pst7aBfOIXbNzWAE7L5bE/5pv1pxXcQIC9iZvO12symzMzdX98KSOPaag
u3a6yP92yy4UMXa9aVanpHox1PKo2ODCP1zOpehXwDs/OQ3FyG4b/OCwRVzw1AVa
mHrLw1bw4BUF3V/J1GNO1voFIMBXopqake6xmAbwfCVFrTCnkD/glNp1h+Jq8Mis
88XBLtBU0EhtNImSkYzDt5MwM+FfhJs66LHAEKq/cOEtt+QTJCgeykmMQC23BpSX
k1EqzMuLaad8PWdmRtquyMQXFxPMzMkRvEOgBb3fWnM8qfjXP3DbAGGi9ij9xnMr
n1JModia7Of1bOm/l3+Ljy3HxDTrr9MC8rkCDQRmldq4ARAAv9F770CJPXuWAfGn
Li1cYREri9pJWfLyem4PgZBxle7I1mNWLYaxedlQ0+AAgzr3rqiaMWutnEqmP53E
2XrY1Rp0a3xVawLK1jJuyr6YMXRa85+2r0Alo2zyej2T8Jlw5yp1HGdCUzovlJVH
Vth2lYCf9UcrHjI+EeXBh5KVGXG1vMj6dx3NQ2yh5GBjWorqs1tGTodUgtsXGZFG
+dWE98z9+ivJu8aON3gC9naQMBf5TtwRyA+eV2esWvVN2BfL0DwkUgg6Xl8vcxmi
XsWqfhkPEEzmMA3FuaAMVOoD/+4dPJzkl8A7qW6SUgAjajLx01mDjBzx0BtQwov+
z+JCmCOoPR+00s0tEU29rh0JgCC2/6iSKgBMY3mTw3mKLj2f+rWH07WZgEc+QOlF
aYX8ZkAIFbtSjhcKZF/arlQGkTN95VIhoKRDcTyKNnWDe9H7O0WPQDdIalChcrdz
6K4/6Ki2JttJBtuz/IVysGlrtHS/rXpsmFAymISUeDCGUNgFNphyLWpQKgfTltg7
MAKeJzhYCJVBS0CV+pNTfjSvyu4+ZpaYisYDDYHHBC4DuZFPvr5UmLB1nOi64c9W
Y4Gs6EPqPPcLXzfSvT4ERBc9/yfQUFfNRKnqfNS/PZTWnezPRByeAv8cjI+8+6Mx
FyiwzgWWJsUj5qTMNeyTjG/h3JMAEQEAAYkEcgQYAQgAJgIbAhYhBDtJrOs/v6Yo
Pk1iDdOJL3wP0MRuBQJosYsjBQkD/OPmAkDBdCAEGQEIAB0WIQQ3tIwB+VLjeuzZ
gSpCSYwyVxleAgUCZpXauAAKCRBCSYwyVxleAoqNEAC7oYkZAmI1qvZgjJ9dI6Fi
WWWiYGbcI6Ou7JcesrEpl2lTD914i5P0ELk0BDndZa98bFOcOd+/8fM7ACfLMUEW
Mil4dYDQ/J5oIzp4+k3pfhBHPMeNopdyMNRofNeuOqPUUdaT8mf4TfAEuwiYdFzx
AtAbWIpuVFQqP35j425X829QRNWqKeDnJa2/3FXU8TekeszSvKrbssnxEUmNuYKZ
wWpqJYhigLTOvSyuU7XZjJDU1ZN54nrc4gUTo3DcvdpvlWuW7EJHweZpQsn4VR0i
bpqD2tFtEekMPTbpCexZ4Q6HCMUwJ8Kk0EQdzkATN5gfT90AEXfOW9GkVowwZT5O
SXgya7KFrI2/GfyT0WAn4uWGtXBXR5KbQx+8AkYsoIDYTGYkvCllBfepaxbzTd67
U+UTRR4dqZd7BgwEgg2v1FB0ojvcx0PgBiuhCxRnS9+Kqgsx2BW8sCKnDVOnaVC7
GwStwi0lHIL0bm4zvFjsquXlqHyjZGjJNBGx+IXZJCtLlaXqMlC+6mYW8G40eel3
4TuK5Vobd8iLE2mThKJ2E+1gTtruIMl5csq96qQhKLqewcglgh9+mOg92soIKPr6
HHO8UZSy4cHEHGsumgKfeYyQnUDb9+1ilrvcHMVCd+HfLY/JGgPznBoJhZO/PrPC
8bWLs7BhEmsVDLeAWjPMUwkQ04kvfA/QxG7edxAAhkjTtIyZ6WmATHGxMpr6r0a6
2QqzH9iUnM5CNcDlAfDxvSLh+AbP/+5/H+68kV6Ydj0rzvxZwEGi+9frwEi4ouo9
aYsAVyM1vrz33XBQw4jcL/9JgdeMpLSDB04UhFi8mrR28cBYmShajaZOkQv7ClHR
UV8609GVFx3Tvo85tUMhBFZIm+IuavCaEBytoOaa1MAUUmrB0ANJYTgXaGVIJHZO
OpkAO9OUIfB40U377FT+XaOAhsfz9b46l+Ika71sxmgQmI/4aDRrdy11aG0rACaM
+rphftwBN3f2l4l21lOBoOR7T0tcVLRhvW7i3ATmI6r3dOD8UHLt7uBXQWpBqzqF
nDxNdShC6uslFmI7EbXMszjKh8jxiZK3l51hnrc5eca6Jeo0F92Rw0CF86uSblG0
G72WrJ5nG03Tr07XdxERmJuFe50QHj6+FJBZi58lzG6qc8RyMfUW3nHD8z+3jx+9
yVFnmKDbKDXh7kLKLCtDY8n3qnODOYRET4wji6awVGJoyiw5O/Ig+m3+lCWgj0qi
5cWkRKUhzoyLaOzEn+OnrbZmylBJYrVYe1YAQJzxesvnJH5BDYu/23wkZSYGdcAH
EcDDG1Xfk1SjP8MqLQyjqTf0xqkUQGY7HXLLpb4UhdNnuYyMF8Svkk2Mw9kY3okn
OuQRYVy5Vhvfbi4gDp0=
=zaHA
-----END PGP PUBLIC KEY BLOCK-----
